usr/share/icons/biglinux-icons-material/22/actions/distribute-randomize.svg

<svg xmlns="http://www.w3.org/2000/svg" viewBox="0 0 22 22"><path d="M13 4v4h5V4h-5zM3 5v4h5V5H3zm11 4v4h5V9h-5zm-6 1v4h5v-4H8zm-5 5v4h5v-4H3zm6 0v4h5v-4H9z" style="fill:currentColor;fill-opacity:1;stroke:none;color:#dedede"/></svg>

<svg xmlns="http://www.w3.org/2000/svg" viewBox="0 0 22 22">
  <defs id="defs3051">
    <style type="text/css" id="current-color-scheme">
      .ColorScheme-Text {
        color:#363636;
      }
      </style>
  </defs>
 <path 
    style="fill:currentColor;fill-opacity:1;stroke:none" 
   d="M 13 4 L 13 8 L 18 8 L 18 4 L 13 4 z M 3 5 L 3 9 L 8 9 L 8 5 L 3 5 z M 14 9 L 14 13 L 19 13 L 19 9 L 14 9 z M 8 10 L 8 14 L 13 14 L 13 10 L 8 10 z M 3 15 L 3 19 L 8 19 L 8 15 L 3 15 z M 9 15 L 9 19 L 14 19 L 14 15 L 9 15 z "
    class="ColorScheme-Text"
    />
</svg>
